X:1
T:Decius, 87.87.887
T:Decius, 87.87.887
T:Nicolaus Decius (1485-1541)
T:Public Domain Courtesy of the Cyber Hymnal™
C:Nicolaus Decius (1485-1541)
Z:Public Domain
Z:Courtesy of the Cyber Hymnal™
%%score ( 1 2 ) ( 3 4 )
L:1/8
Q:1/4=103
M:4/4
K:F
V:1 treble 
V:2 treble 
V:3 bass 
V:4 bass 
V:1
 (FG) | [FA]2 [FB]2 [Ec]2 B2 | [FA]2 G2 !fermata![FA]2 [FA]2 | A2 (G[^FA]) [GB]2 [DG]2 | %4
 F2 [EG]2 !fermata!F2 (FG) | [FA]2 [FB]2 c2 B2 | A2 [EG]2 !fermata![EA]2 [FA]2 | %7
 A2 (G[^FA]) [GB]2 G2 | F2 [EG]2 !fermata!F2 F2 | [FG]2 [_EA]2 [DB]2 [CA]2 | %10
 [_EG]2 [D^F]2 !fermata![DG]2 G2 | [CA]2 [FB]2 [Fc]2 B2 | A2 [EG]2 !fermata![EA]2 [FA]2 | %13
 A2 (G[^FA]) [GB]2 [DG]2 | (F2 [EG]2) !fermata![CF]2 |] %15
V:2
 F2 | x6 (FG) | x2 (FE) x4 | (E^F)G x5 | F2 F2 F2 x2 | x4 (FE) (FG) | A2 x6 | (E^F)G x2 (DE) x | %8
 F2 F2 F2 x2 | x8 | x6 (_ED) | x6 (FG) | (GF) x6 | (E^F)G x5 | F2 x4 |] %15
V:3
 (A,B,) | C2 [D,B,]2 (B,A,) ([D,D][E,C]) | [F,C]2 [C,C]2 !fermata![F,C]2 [D,D]2 | %3
 [A,^C]2 D2 [G,D]2 [B,,B,]2 | A,2 B,2 !fermata![F,A,]2 (A,B,) | %5
 [E,C]2 [D,B,]2 [C,A,]2 ([D,D][E,C]) | (CF) (ED) !fermata![A,^C]2 D2 | [A,^C]2 D2 [G,D]2 [B,,D]2 | %8
 C2 (CB,) !fermata![F,A,]2 [D,F,]2 | [C,C]2 [C,C]2 [G,B,]2 [_E,C]2 | %10
 (CB,) [D,A,]2 !fermata![G,B,]2 [C,C]2 | C2 [D,B,]2 [D,A,]2 ([D,D][=E,C]) | %12
 [F,C]2 (ED) !fermata![A,^C]2 D2 | [A,^C]2 D2 [G,D]2 (=CB,) | (A,2 B,2) !fermata![F,A,]2 |] %15
V:4
 F,2 | (F,E,) x C,2 x3 | x8 | x2 (B,A,) x4 | C,4 F,2 x2 | x8 | F,2 B,2 x (F,G,) x | x2 (B,A,) x4 | %8
 (A,,B,,) C,2 x4 | x8 | C,2 x6 | (F,_E,) x6 | x2 B,2 x (F,G,) x | x2 (B,A,) x B,,2 x | C,4 x2 |] %15

